icons/symptom_fill.svg

<svg width="48" height="48" viewBox="0 0 48 48" fill="none" xmlns="http://www.w3.org/2000/svg">
<path d="M35.0843 38.1833C39.2942 34.8886 42 29.7603 42 24C42 16.1432 36.9663 9.46217 29.9479 7.00591L30.6088 5.11768C38.407 7.84685 44 15.2703 44 24C44 30.413 40.9816 36.1211 36.288 39.781L35.0843 38.1833Z" fill="black"/>
<path d="M28.466 41.4416C27.0379 41.8062 25.5416 42 24 42C22.4922 42 21.0278 41.8146 19.6282 41.4654L19.1526 43.4085C20.7046 43.7949 22.3284 44 24 44C25.7055 44 27.3611 43.7865 28.9416 43.3848L28.466 41.4416Z" fill="black"/>
<path d="M6 24C6 29.789 8.7328 34.9397 12.9787 38.2324L11.7751 39.83C7.04544 36.1721 4 30.4417 4 24C4 15.2703 9.59303 7.84685 17.3912 5.11768L18.0521 7.00591C11.0337 9.46217 6 16.1432 6 24Z" fill="black"/>
<path d="M28.5 8.49999C28.5 10.9853 26.4853 13 24 13C21.5147 13 19.5 10.9853 19.5 8.49999C19.5 6.01777 21.5098 4.00496 23.9908 4H24.0092C26.4902 4.00496 28.5 6.01777 28.5 8.49999Z" fill="black"/>
<path fill-rule="evenodd" clip-rule="evenodd" d="M16 22C16.7286 22 17.4117 21.8052 18 21.4649V25.9851L17.9999 26V29C17.9999 28.9981 17.9999 28.997 17.9998 28.9967C17.9997 28.9964 17.9996 28.997 17.9993 28.9983L17.9977 29.0092C17.991 29.055 17.9657 29.2287 17.8732 29.578C17.7678 29.9761 17.6095 30.4791 17.4068 31.0645C17.3711 31.1679 17.3341 31.2731 17.2962 31.38C15.9392 32.0198 15 33.4002 15 35C15 35.5221 15.1 36.0208 15.2819 36.478C14.9465 37.2745 14.6309 38.0072 14.3694 38.6077C14.1605 39.0873 13.9866 39.4816 13.8652 39.7553C13.8044 39.8922 13.7569 39.9989 13.7246 40.071L13.6761 40.1793C13.2535 41.1183 13.6131 42.2248 14.5069 42.7361C15.4008 43.2473 16.5368 42.9963 17.132 42.156L19.3801 38.9822C21.411 38.7907 23 37.0809 23 35C23 34.6679 22.9595 34.3452 22.8832 34.0366L24 32.4601L30.868 42.156C31.4632 42.9963 32.5992 43.2473 33.493 42.736C34.3869 42.2248 34.7464 41.1183 34.3239 40.1793L34.2753 40.071C34.2431 39.9989 34.1955 39.8922 34.1348 39.7553C34.0133 39.4815 33.8394 39.0873 33.6305 38.6077C33.2124 37.6475 32.6561 36.3495 32.1011 34.9927C31.5441 33.6311 30.9974 32.2325 30.5931 31.0645C30.3905 30.4791 30.2321 29.9761 30.1268 29.578C30.0343 29.2287 30.009 29.055 30.0023 29.0092C30.0016 29.0044 30.0011 29.0009 30.0007 28.9989C30.0002 28.9955 30 28.996 30 29L30 26.4649C31.1956 25.7732 32 24.4806 32 23C32 21.8053 31.4762 20.7329 30.6458 20H36C37.1046 20 38 19.1046 38 18C38 16.8954 37.1046 16 36 16H19.4649C18.7733 14.8044 17.4806 14 16 14C14.5194 14 13.2267 14.8044 12.5351 16H12C10.8954 16 10 16.8954 10 18C10 19.1046 10.8954 20 12 20H12.5351C13.2267 21.1956 14.5194 22 16 22ZM18 18C18 19.1046 17.1046 20 16 20C14.8954 20 14 19.1046 14 18C14 16.8954 14.8954 16 16 16C17.1046 16 18 16.8954 18 18ZM30 23C30 24.1046 29.1046 25 28 25C26.8954 25 26 24.1046 26 23C26 21.8954 26.8954 21 28 21C29.1046 21 30 21.8954 30 23ZM21 35C21 36.1046 20.1046 37 19 37C17.8954 37 17 36.1046 17 35C17 33.8954 17.8954 33 19 33C20.1046 33 21 33.8954 21 35Z" fill="black"/>
</svg>

<svg
  xmlns="http://www.w3.org/2000/svg"
  width="24"
  height="24"
  viewBox="0 0 24 24"
  fill="none"
  stroke="currentColor"
  stroke-width="2"
  stroke-linecap="round"
  stroke-linejoin="round"
>
  <path d="M35.084 38.183C39.294 34.89 42 29.76 42 24c0-7.857-5.034-14.538-12.052-16.994l.66-1.888C38.408 7.847 44 15.27 44 24c0 6.413-3.018 12.121-7.712 15.781z" />
  <path d="M28.466 41.442A18 18 0 0 1 24 42a18 18 0 0 1-4.372-.535l-.475 1.943c1.552.387 3.175.592 4.847.592 1.706 0 3.361-.214 4.942-.615z" />
  <path d="M6 24c0 5.789 2.733 10.94 6.979 14.232l-1.204 1.598C7.045 36.172 4 30.442 4 24 4 15.27 9.593 7.847 17.391 5.118l.661 1.888C11.034 9.462 6 16.143 6 24" />
  <path d="M28.5 8.5A4.5 4.5 0 1 1 23.99 4h.02a4.5 4.5 0 0 1 4.49 4.5" />
  <path
    fill-rule="evenodd"
    d="M16 22c.729 0 1.412-.195 2-.535V29v-.003.001l-.002.011c-.007.046-.032.22-.125.569-.105.398-.264.901-.466 1.486l-.11.316a4 4 0 0 0-2.015 5.098 192 192 0 0 1-1.557 3.593l-.049.108a2 2 0 0 0 3.456 1.977l2.248-3.174a4 4 0 0 0 3.503-4.945L24 32.46l6.868 9.696a2 2 0 0 0 3.456-1.977l-.049-.108a126 126 0 0 1-.645-1.463c-.418-.96-.974-2.258-1.529-3.615a81 81 0 0 1-1.508-3.929 22 22 0 0 1-.466-1.486c-.093-.35-.118-.523-.125-.569l-.001-.01q0-.005-.001.001v-2.535A4 4 0 0 0 30.646 20H36a2 2 0 1 0 0-4H19.465A4 4 0 0 0 16 14c-1.48 0-2.773.804-3.465 2H12a2 2 0 1 0 0 4h.535A4 4 0 0 0 16 22m2-4a2 2 0 1 1-4 0 2 2 0 0 1 4 0m12 5a2 2 0 1 1-4 0 2 2 0 0 1 4 0m-9 12a2 2 0 1 1-4 0 2 2 0 0 1 4 0"
    clip-rule="evenodd"
  />
</svg>
